packages/icons/svg/Fill/volume-up.svg

<svg fill="none" height="24" viewBox="0 0 24 24" width="24" xmlns="http://www.w3.org/2000/svg"><path clip-rule="evenodd" d="m13.4343 3.17548c.306-.21.703-.234 1.032-.06.328.173.534.514.534.885v16.00002c0 .371-.206.712-.534.885-.146.077-.307.115-.466.115-.199 0-.396-.059-.566-.175l-6.41101-4.397h-5.023c-.553 0-1-.447-1-1v-6.85702c0-.553.447-1 1-1h5.023zm6.2034 2.05436c-.425-.352-1.056-.293-1.408.133-.352.425-.293 1.055.133 1.408 1.7 1.409 2.637 3.26596 2.637 5.22996 0 1.963-.937 3.82-2.637 5.229-.426.353-.485.983-.133 1.408.198.239.483.363.771.363.224 0 .45-.076.637-.23 2.168-1.796 3.362-4.201 3.362-6.77 0-2.56996-1.194-4.97496-3.362-6.77096zm-1.3584 3.14353c-.347-.43-.976-.497-1.406-.152-.43.346-.499.975-.153 1.406 1.036 1.28603 1.036 3.46003 0 4.74603-.346.431-.277 1.06.153 1.406.185.149.406.221.626.221.292 0 .582-.128.78-.373 1.636-2.034 1.636-5.22 0-7.25403z" fill="#6b7280" fill-rule="evenodd"/></svg>

<svg width="24" height="24" viewBox="0 0 24 24" fill="none" xmlns="http://www.w3.org/2000/svg">
<g id="Icon/Fill/volume-up">
<path id="Mask" fill-rule="evenodd" clip-rule="evenodd" d="M13.4342 3.1752C13.7402 2.9652 14.1372 2.9412 14.4662 3.1152C14.7942 3.2882 15.0002 3.6292 15.0002 4.0002V20.0002C15.0002 20.3712 14.7942 20.7122 14.4662 20.8852C14.3202 20.9622 14.1592 21.0002 14.0002 21.0002C13.8012 21.0002 13.6042 20.9412 13.4342 20.8252L7.02324 16.4282H2.00024C1.44724 16.4282 1.00024 15.9812 1.00024 15.4282V8.5712C1.00024 8.0182 1.44724 7.5712 2.00024 7.5712H7.02324L13.4342 3.1752ZM19.6376 5.2295C19.2126 4.8775 18.5816 4.9365 18.2296 5.3625C17.8776 5.7875 17.9366 6.4175 18.3626 6.7705C20.0626 8.1795 20.9996 10.0365 20.9996 12.0005C20.9996 13.9635 20.0626 15.8205 18.3626 17.2295C17.9366 17.5825 17.8776 18.2125 18.2296 18.6375C18.4276 18.8765 18.7126 19.0005 19.0006 19.0005C19.2246 19.0005 19.4506 18.9245 19.6376 18.7705C21.8056 16.9745 22.9996 14.5695 22.9996 12.0005C22.9996 9.4305 21.8056 7.0255 19.6376 5.2295ZM18.2792 8.373C17.9322 7.943 17.3032 7.876 16.8732 8.221C16.4432 8.567 16.3742 9.196 16.7202 9.627C17.7562 10.913 17.7562 13.087 16.7202 14.373C16.3742 14.804 16.4432 15.433 16.8732 15.779C17.0582 15.928 17.2792 16 17.4992 16C17.7912 16 18.0812 15.872 18.2792 15.627C19.9152 13.593 19.9152 10.407 18.2792 8.373Z" fill="#000000"/>
</g>
</svg>
